src/components/00-materials/images-raw/Document.svg

<svg width="96" height="96" viewBox="0 0 96 96" fill="none" xmlns="http://www.w3.org/2000/svg">
<path d="M32 61H48M60 24V14H26C25.4696 14 24.9609 14.2107 24.5858 14.5858C24.2107 14.9609 24 15.4696 24 16V80C24 80.5304 24.2107 81.0391 24.5858 81.4142C24.9609 81.7893 25.4696 82 26 82H70C70.5304 82 71.0391 81.7893 71.4142 81.4142C71.7893 81.0391 72 80.5304 72 80V26H62C61.4696 26 60.9609 25.7893 60.5858 25.4142C60.2107 25.0391 60 24.5304 60 24ZM60 14L72 26L60 14ZM32 23H46H32ZM32 29H40H32ZM32 43H64H32ZM32 49H64H32ZM32 55H64H32Z" stroke="#00008F" stroke-width="2" stroke-linecap="round" stroke-linejoin="round"/>
</svg>

<svg width="96" height="96" viewBox="0 0 96 96" fill="none" xmlns="http://www.w3.org/2000/svg"><path d="M32 61h16m12-37V14H26a2 2 0 00-2 2v64a2 2 0 002 2h44a2 2 0 002-2V26H62a2 2 0 01-2-2zm0-10l12 12-12-12zm-28 9h14-14zm0 6h8-8zm0 14h32-32zm0 6h32-32zm0 6h32-32z" stroke="#00008F" stroke-width="2" stroke-linecap="round" stroke-linejoin="round"/></svg>
